icons/media/volume-up.svg

<svg width="32" height="32" viewBox="0 0 32 32" fill="none" xmlns="http://www.w3.org/2000/svg">
<path fill-rule="evenodd" clip-rule="evenodd" d="M15.8671 3.71973C16.6545 2.93227 18.001 3.48998 18.001 4.60361V27.3965C18.001 28.5101 16.6546 29.0679 15.8671 28.2804L9.58676 22.0001H4.00098C2.89641 22.0001 2.00098 21.1046 2.00098 20.0001V12.0001C2.00098 10.8955 2.89641 10.0001 4.00098 10.0001H9.58676L15.8671 3.71973ZM16.001 6.41427L11.001 11.4143C10.6259 11.7894 10.1172 12.0001 9.58676 12.0001H4.00098V20.0001H9.58676C10.1172 20.0001 10.6259 20.2108 11.001 20.5859L16.001 25.5859V6.41427ZM26.8871 8.06671C28.8178 10.1476 29.9996 12.9369 29.9996 16.0001C29.9996 19.0632 28.8178 21.8525 26.8871 23.9334L25.421 22.5731C27.0221 20.8474 27.9996 18.539 27.9996 16.0001C27.9996 13.4611 27.0221 11.1527 25.421 9.42702L26.8871 8.06671ZM24.9994 16C24.9994 14.0177 24.2457 12.209 23.0109 10.8486L21.53 12.1928C22.4438 13.1996 22.9994 14.5338 22.9994 16C22.9994 17.4663 22.4438 18.8005 21.53 19.8072L23.0109 21.1515C24.2457 19.7911 24.9994 17.9824 24.9994 16Z" fill="black"/>
</svg>

<svg viewBox="0 0 32 32" xmlns="http://www.w3.org/2000/svg"><path fill-rule="evenodd" d="M15.867 3.72c.787-.788 2.134-.23 2.134.884v22.793c0 1.113-1.346 1.67-2.134.883L9.587 22H4a2 2 0 01-2-2v-8a2 2 0 012-2h5.586l6.28-6.28zm.134 2.694l-5 5A2 2 0 019.587 12H4v8h5.586a2 2 0 011.414.586l5 5V6.414zm10.886 1.653A11.629 11.629 0 0130 16c0 3.063-1.182 5.852-3.113 7.933l-1.466-1.36A9.629 9.629 0 0028 16a9.629 9.629 0 00-2.579-6.573l1.466-1.36zM25 16a7.643 7.643 0 00-1.988-5.151l-1.481 1.344A5.643 5.643 0 0123 16c0 1.466-.556 2.8-1.47 3.807l1.48 1.345A7.643 7.643 0 0025 16z"/></svg>
